X:1805
L:1/8
M:4/4
K:G
 G>AB<G c<ee<g | d>BB>G F>A A2 | G>AB<G c<ee<g | d<BA<B GzG z :: g>fg>a b<gg>f | e>fg<e d<BB>d | 
 g>fg>a b<ag>f | e>ad>f g2 g>a | b2 b>a g>ag>f | e>fg<e d<BB>d | G>AB<G c<ee<g | d<BA>B Gzg z :|

